usr/share/icons/biglinux-icons-material/scalable/apps/org.gnome.Console.svg

<svg width="24" height="24" viewBox="0 0 24 24" fill="none" xmlns="http://www.w3.org/2000/svg">
<path fill-rule="evenodd" clip-rule="evenodd" d="M9.59604 1.11359C9.71588 1.11486 9.83043 1.0996 9.93969 1.06779C11.3755 0.973736 12.8111 0.977551 14.2467 1.07924C15.5484 1.18066 16.8085 1.46308 18.0269 1.9265C20.0525 2.76044 21.4386 4.2069 22.185 6.26586C22.6119 7.50549 22.8639 8.78021 22.9411 10.09C23.0478 11.7347 23.0096 13.3758 22.8265 15.0133C22.6895 16.1642 22.3916 17.271 21.933 18.3336C21.0824 20.1761 19.704 21.447 17.7978 22.1463C16.2531 22.6682 14.6647 22.943 13.0325 22.9706C11.1966 23.0661 9.37913 22.9287 7.57997 22.5585C4.26839 21.8208 2.22559 19.8018 1.45158 16.5017C1.12311 15.0161 0.974199 13.5124 1.00483 11.9906C0.968176 10.3724 1.14 8.77709 1.52031 7.20471C2.33171 4.11908 4.2905 2.20701 7.39669 1.46852C8.12048 1.29157 8.8536 1.17326 9.59604 1.11359Z" fill="url(#paint0_radial_3_321)"/>
<path d="M18.6689 17.1432H9.38486C9.01792 17.1432 8.72046 17.4283 8.72046 17.7799C8.72046 18.1316 9.01792 18.4167 9.38486 18.4167H18.6689C19.0359 18.4167 19.3333 18.1316 19.3333 17.7799C19.3333 17.4283 19.0359 17.1432 18.6689 17.1432Z" fill="#FAFAFA"/>
<path d="M5.41348 5.58841C5.28405 5.57261 5.15265 5.59388 5.03577 5.64956C4.9189 5.70524 4.82177 5.79284 4.75659 5.90135C4.71264 5.97382 4.68405 6.05393 4.67248 6.13705C4.66092 6.22018 4.6666 6.30468 4.68921 6.38569C4.71182 6.4667 4.7509 6.5426 4.8042 6.60904C4.85751 6.67548 4.92398 6.73113 4.99979 6.77278L12.1252 10.7207L4.99979 14.671C4.92398 14.7126 4.85751 14.7683 4.8042 14.8347C4.7509 14.9012 4.71182 14.9771 4.68921 15.0581C4.6666 15.1391 4.66092 15.2236 4.67248 15.3067C4.68405 15.3898 4.71264 15.4699 4.75659 15.5424C4.94213 15.8481 5.34578 15.9516 5.66419 15.7759L13.7047 11.3177C13.8023 11.2619 13.8831 11.1825 13.9389 11.0875C13.9948 10.9925 14.0238 10.8851 14.0231 10.776C14.0281 10.7568 14.0256 10.7399 14.0281 10.7231C14.0281 10.7038 14.0281 10.687 14.0231 10.6677C14.0234 10.559 13.9941 10.4521 13.9383 10.3576C13.8825 10.2631 13.802 10.1841 13.7047 10.1285L5.66419 5.66785C5.58697 5.62559 5.50173 5.59859 5.41348 5.58841Z" fill="#FAFAFA"/>
<defs>
<radialGradient id="paint0_radial_3_321" cx="0" cy="0" r="1" gradientUnits="userSpaceOnUse" gradientTransform="translate(12 1) rotate(90) scale(22)">
<stop stop-color="#555555"/>
<stop offset="1" stop-color="#222222"/>
</radialGradient>
</defs>
</svg>

<svg xmlns="http://www.w3.org/2000/svg" width="24" height="24" fill="none"><path fill="url(#a)" fill-rule="evenodd" d="M9.596 1.114c.12 0 .234-.014.344-.046a31.627 31.627 0 0 1 4.307.011c1.301.102 2.561.384 3.78.848 2.025.833 3.412 2.28 4.158 4.339.427 1.24.679 2.514.756 3.824a27.94 27.94 0 0 1-.114 4.923 11.88 11.88 0 0 1-.894 3.32c-.85 1.843-2.229 3.114-4.135 3.813a15.624 15.624 0 0 1-4.765.825 21.423 21.423 0 0 1-5.453-.413c-3.312-.737-5.354-2.756-6.128-6.056a19.047 19.047 0 0 1-.447-4.511 18.491 18.491 0 0 1 .515-4.786c.812-3.086 2.77-4.998 5.877-5.736a13.953 13.953 0 0 1 2.199-.355Z" clip-rule="evenodd"/><path fill="#FAFAFA" d="M18.669 17.143H9.385a.651.651 0 0 0-.665.637c0 .352.298.637.665.637h9.284a.651.651 0 0 0 .664-.637.651.651 0 0 0-.664-.637ZM5.413 5.588a.686.686 0 0 0-.377.062.652.652 0 0 0-.364.487.611.611 0 0 0 .132.472c.054.066.12.122.196.164l7.125 3.948L5 14.67a.654.654 0 0 0-.31.387.61.61 0 0 0 .067.484.68.68 0 0 0 .907.234l8.04-4.458a.639.639 0 0 0 .235-.23.606.606 0 0 0 .084-.312c.005-.02.003-.036.005-.053 0-.02 0-.036-.005-.055a.606.606 0 0 0-.085-.31.639.639 0 0 0-.233-.23l-8.04-4.46a.686.686 0 0 0-.252-.08Z"/><defs><radialGradient id="a" cx="0" cy="0" r="1" gradientTransform="matrix(0 22 -22 0 12 1)" gradientUnits="userSpaceOnUse"><stop stop-color="#555"/><stop offset="1" stop-color="#222"/></radialGradient></defs></svg>
